src/lib/packages/icons/src/assets/filled/tumbler.svg

<svg xmlns="http://www.w3.org/2000/svg" width="24" height="24" fill="none"><path fill="currentColor" d="M17 21h-3.01c-2.71 0-4.72-1.39-4.72-4.72v-5.34H7V8.05c2.71-.7 3.65-3.03 3.78-5.05h2.81v4.58h3.28v3.36h-3.28v4.65c0 1.39.7 1.87 1.82 1.87H17V21Z"/></svg>

<svg width="24" height="24" viewBox="0 0 24 24" fill="none" xmlns="http://www.w3.org/2000/svg">
<path d="M17 21H13.99C11.28 21 9.26999 19.61 9.26999 16.28V10.94H7V8.05C9.71 7.35 10.65 5.02 10.78 3H13.59V7.58H16.87V10.94H13.59V15.59C13.59 16.98 14.29 17.46 15.41 17.46H17V21Z" fill="currentColor"/>
</svg>
